X:1
T:When They Ring the Golden Bells
T:When They Ring the Golden Bells
T:Daniel A. De Marbelle
T:Daniel A. De Marbelle, 1887
T:Public Domain Courtesy of the Cyber Hymnal™
T:Public Domain Courtesy of the Cyber Hymnal™
C:Daniel A. De Marbelle
Z:Public Domain
Z:Courtesy of the Cyber Hymnal™
%%score ( 1 2 ) ( 3 4 )
L:1/8
Q:1/4=88
M:4/4
K:F
V:1 treble 
V:2 treble 
V:3 bass 
V:4 bass 
V:1
 [Ac]>[GB] | [FA]>[F^G] [FA]>[FG] [FA]<[Fc] [FA]>[CF] | %2
w: 1.~There’s a|land be- yond the riv- er, That we|
w: 2.~We shall|know no sin or sor- row, In that|
w: 3.~When our|days shall know their num- ber, And in|
 [B,D]>[CE] [DF]>[B,D] [A,C]<[CF] [CF]>[CG] | [FA]>[F^G] [FA]>[FB] [Fc]>[F=B] [Fd]>[Fc] | %4
w: call the sweet for- ev- er, And we|on- ly reach that shore by faith’s de-|
w: ha- ven of to- mor- row, When our|barque shall sail be- yond the sil- ver|
w: death we sweet- ly slum- ber, When the|King com- mands the spir- it to be|
 [EG]6 [EG]>[FA] | [GB]>[FA] [Ac]>[FA] [CG]<[CF] [CF]>[CE] | %6
w: cree; One by|one we’ll gain the por- tals, There to|
w: sea; We shall|on- ly know the bless- ing Of our|
w: free; Ne- ver-|more with ang- uish lad- en, We shall|
 [B,D]>[CE] [DF]>[B,D] [A,C]<[CF] [CF]>[CG] | [FA]>[Fc] [FBf]>[Fd] [Fc]>[FA] [EG]>[EA] | %8
w: dwell with the im- mor- tals, When they|ring the gold- en bells for you and|
w: Fa- ther’s sweet ca- ress- ing, When they|ring the gold- en bells for you and|
w: reach that lovel- y E- den, When they|ring the gold- en bells for you and|
 (F2 D_D C2) ||"^Refrain" [Fc]>[Fc] [Fd]>[FB] [Ff]>[Fd] [FB]<[Fd][Ff]>[Fd] | %10
w: me. * * *||
w: me. * * *|Don’t you hear the bells now ring- ing? Don’t you|
w: me. * * *||
 [Fc]>[Fd] [Fc]>[FA] [FA]<[Fc] [Fc]>[Fc] | [Af]>[Fe] [Fd]>[Fc] [EB]>[FA] G>[DF] | c6 [Ac]>[GB] | %13
w: |||
w: hear the an- gels sing- ing? ’Tis the|glor- y hal- le- lu- jah Ju- bil-|ee. In that|
w: |||
 [FA]>[F^G] [FA]>[FG] [FA]<[Fc] [FA]>[CF] | [B,D]>[CE] [DF]>[B,D] [A,C]<[CF] [CF]>[CG] | %15
w: ||
w: far off sweet for- ev- er, Just be-|yond the shin- ing riv- er, When they|
w: ||
 [FA]>[Fc] [FBf]>[Fd] [Fc]>[FA] [EG]>[EA] | (F2 D_D C2) x2 |] x6 |] %18
w: |||
w: ring the gold- en bells for you and|me. * * *||
w: |||
V:2
 x2 | x8 | x8 | x8 | x8 | x8 | x8 | x8 | F6 || x10 | x8 | x8 | (D2 E>F G2) x2 | x8 | x8 | x8 | %16
 F6 x2 |] x6 |] %18
V:3
 [F,C]>[F,C] | [F,C]>[F,=B,] [F,C]>[F,B,] [F,C]<[F,A,] [F,C]>[F,A,] | %2
 [B,,F,B,]>[B,,B,] [B,,B,]>[B,,F,] F,<[F,A,] [F,A,]>[F,B,] | %3
 [F,C]>[F,=B,] [F,C]>[F,G,] [F,A,]>[F,^G,] [F,_B,]>[F,A,] | [C,C]6 [C,C]>[C,C] | %5
 [C,C]>[C,C] [C,C]>[C,C] [F,B,]<[F,A,] [F,A,]>[F,A,] | %6
 [B,,B,]>[B,,B,] [B,,B,]>[B,,F,] F,<[F,A,] [F,A,]>[F,B,] | %7
 [F,C]>[A,_E] [B,D]>[B,,B,] [C,A,]>[C,C] [C,B,]>[C,C] | ([F,A,]2 [F,B,][F,B,] [F,A,]2) || %9
 [F,A,]>[F,A,] x8 | B,>[B,D] [B,D]>B, [B,D]<B, [B,D]>B, | %11
 [F,A,]>[F,B,] [F,A,]>[F,C] [F,C]<[F,A,] [F,A,]>[F,A,] | %12
 [F,C]>[A,C] B,>[A,C] [G,C]>[F,C] [E,C]>[D,=B,] | (C2 G,>A, B,2) [C,C]>[C,C] | %14
 [F,C]>[F,=B,] [F,C]>[F,B,] [F,C]<[F,A,] [F,C]>[F,A,] | %15
 [B,,B,]>[B,,B,] [B,,B,]>[B,,F,] F,<[F,A,] [F,A,]>[F,B,] | %16
 [F,C]>[A,_E] [B,D]>[B,,B,] [C,A,]>[C,C] [C,B,]>[C,C] |] ([F,A,]2 [F,B,][F,B,] [F,A,]2) |] %18
V:4
 x2 | x8 | x8 | x8 | x8 | x8 | x8 | x8 | x6 || x10 | x8 | x8 | x8 | C,6 x2 | x8 | x8 | x8 |] x6 |] %18

